svgs/sharp-light/f.svg

<svg xmlns="http://www.w3.org/2000/svg" viewBox="0 0 320 512"><!--! Font Awesome Pro 6.6.0 by @fontawesome - https://fontawesome.com License - https://fontawesome.com/license (Commercial License) Copyright 2024 Fonticons, Inc. --><path d="M16 32L0 32 0 48 0 248 0 464l0 16 32 0 0-16 0-192 208 0 16 0 0-32-16 0L32 240 32 64l272 0 16 0 0-32-16 0L16 32z"/></svg>

<svg xmlns="http://www.w3.org/2000/svg" viewBox="0 0 320 512"><!--! Font Awesome Pro 6.4.2 by @fontawesome - https://fontawesome.com License - https://fontawesome.com/license (Commercial License) Copyright 2023 Fonticons, Inc. --><path d="M16 32H0V48 248 464v16H32V464 272H240h16V240H240 32V64H304h16V32H304 16z"/></svg>
